Numix/16/status/indicator-keyboard-Ja-2.svg

<?xml version="1.0" encoding="UTF-8" standalone="no"?>
<svg
   xmlns:dc="http://purl.org/dc/elements/1.1/"
   xmlns:cc="http://creativecommons.org/ns#"
   xmlns:rdf="http://www.w3.org/1999/02/22-rdf-syntax-ns#"
   xmlns:svg="http://www.w3.org/2000/svg"
   xmlns="http://www.w3.org/2000/svg"
   xmlns:sodipodi="http://sodipodi.sourceforge.net/DTD/sodipodi-0.dtd"
   xmlns:inkscape="http://www.inkscape.org/namespaces/inkscape"
   viewBox="0 0 16 16"
   id="svg2"
   version="1.1"
   inkscape:version="0.91 r13725"
   sodipodi:docname="indicator-keyboard-Ja-2.svg">
  <metadata
     id="metadata14">
    <rdf:RDF>
      <cc:Work
         rdf:about="">
        <dc:format>image/svg+xml</dc:format>
        <dc:type
           rdf:resource="http://purl.org/dc/dcmitype/StillImage" />
      </cc:Work>
    </rdf:RDF>
  </metadata>
  <defs
     id="defs12" />
  <sodipodi:namedview
     pagecolor="#ffffff"
     bordercolor="#666666"
     borderopacity="1"
     objecttolerance="10"
     gridtolerance="10"
     guidetolerance="10"
     inkscape:pageopacity="0"
     inkscape:pageshadow="2"
     inkscape:window-width="640"
     inkscape:window-height="480"
     id="namedview10"
     showgrid="false"
     inkscape:zoom="14.75"
     inkscape:cx="8"
     inkscape:cy="8"
     inkscape:window-x="65"
     inkscape:window-y="24"
     inkscape:window-maximized="0"
     inkscape:current-layer="svg2" />
  <path
     style="fill:#ececec;fill-opacity:1"
     d="M 1.5996094 0 C 0.71320937 2.9605947e-16 0 0.71320937 0 1.5996094 L 0 14.400391 C 2.9605947e-16 15.286791 0.71320937 16 1.5996094 16 L 14.400391 16 C 15.286791 16 16 15.286791 16 14.400391 L 16 1.5996094 C 16 0.71320937 15.286791 0 14.400391 0 L 1.5996094 0 z M 5.0664062 4.859375 L 5.6777344 4.859375 L 5.6777344 9.1347656 C 5.6777344 9.4347656 5.6478906 9.7127031 5.5878906 9.9707031 C 5.5278906 10.222703 5.4234375 10.444719 5.2734375 10.636719 C 5.1294375 10.822719 4.9335 10.970125 4.6875 11.078125 C 4.4475 11.180125 4.1452969 11.230469 3.7792969 11.230469 C 3.5632969 11.230469 3.3655469 11.209969 3.1855469 11.167969 C 3.0055469 11.131969 2.8450313 11.087203 2.7070312 11.033203 C 2.5690312 10.979203 2.4534219 10.921328 2.3574219 10.861328 C 2.2674219 10.801328 2.1983906 10.747219 2.1503906 10.699219 L 2.4375 10.205078 C 2.4915 10.253078 2.5567656 10.307187 2.6347656 10.367188 C 2.7187656 10.421187 2.8158281 10.471531 2.9238281 10.519531 C 3.0318281 10.567531 3.1512031 10.606719 3.2832031 10.636719 C 3.4152031 10.666719 3.5588438 10.681641 3.7148438 10.681641 C 4.1768437 10.681641 4.5164219 10.562266 4.7324219 10.322266 C 4.9544219 10.076265 5.0664062 9.6583125 5.0664062 9.0703125 L 5.0664062 4.859375 z M 8.640625 6.3359375 C 8.946625 6.3359375 9.2060156 6.3807031 9.4160156 6.4707031 C 9.6320156 6.5547031 9.8055 6.6740781 9.9375 6.8300781 C 10.0695 6.9800781 10.164609 7.1591406 10.224609 7.3691406 C 10.284609 7.5791406 10.316406 7.8086875 10.316406 8.0546875 L 10.316406 10.988281 C 10.256406 11.006281 10.168688 11.026781 10.054688 11.050781 C 9.9406877 11.068781 9.8082031 11.089281 9.6582031 11.113281 C 9.5082031 11.137281 9.3402969 11.155969 9.1542969 11.167969 C 8.9742969 11.185969 8.7877031 11.195313 8.5957031 11.195312 C 8.3497031 11.195312 8.1221094 11.167281 7.9121094 11.113281 C 7.7081094 11.059281 7.5290469 10.975328 7.3730469 10.861328 C 7.2230469 10.741328 7.1017188 10.592109 7.0117188 10.412109 C 6.9277188 10.226109 6.8867187 10.000328 6.8867188 9.7363281 C 6.8867188 9.4843281 6.93525 9.2698437 7.03125 9.0898438 C 7.12725 8.9098438 7.2615469 8.7624375 7.4355469 8.6484375 C 7.6095469 8.5284375 7.8166406 8.4407187 8.0566406 8.3867188 C 8.2966406 8.3327188 8.5578438 8.3066406 8.8398438 8.3066406 C 8.9238437 8.3066406 9.0096094 8.3122187 9.0996094 8.3242188 C 9.1956094 8.3302187 9.2870938 8.341375 9.3710938 8.359375 C 9.4610938 8.371375 9.5357031 8.3862969 9.5957031 8.4042969 C 9.6617031 8.4162969 9.7064688 8.4294063 9.7304688 8.4414062 L 9.7304688 8.1523438 C 9.7304688 7.9903438 9.7193125 7.8355469 9.6953125 7.6855469 C 9.6713125 7.5295469 9.6172031 7.3914844 9.5332031 7.2714844 C 9.4552031 7.1454844 9.3414063 7.0466094 9.1914062 6.9746094 C 9.0474063 6.8966094 8.8552344 6.8574219 8.6152344 6.8574219 C 8.2732344 6.8574219 8.0176094 6.8816875 7.8496094 6.9296875 C 7.6816094 6.9776875 7.5584688 7.016875 7.4804688 7.046875 L 7.4003906 6.5332031 C 7.5023906 6.4852031 7.6571875 6.4404375 7.8671875 6.3984375 C 8.0831875 6.3564375 8.340625 6.3359375 8.640625 6.3359375 z M 12.521484 8.7539062 C 12.915384 8.7539062 13.213209 8.851875 13.412109 9.046875 C 13.611009 9.237975 13.710938 9.5044563 13.710938 9.8476562 C 13.710938 9.9997563 13.683506 10.14475 13.628906 10.28125 C 13.574306 10.41385 13.49985 10.543169 13.40625 10.667969 C 13.31655 10.792769 13.212703 10.912297 13.095703 11.029297 C 12.978703 11.146297 12.859181 11.263859 12.738281 11.380859 C 12.636881 11.478359 12.538906 11.578288 12.441406 11.679688 C 12.347806 11.777187 12.261594 11.877116 12.183594 11.978516 C 12.109494 12.076016 12.048753 12.172031 12.001953 12.269531 C 11.959053 12.363131 11.9375 12.457181 11.9375 12.550781 L 11.9375 12.5625 L 13.849609 12.5625 L 13.849609 12.896484 L 11.515625 12.896484 C 11.515625 12.888684 11.513699 12.874969 11.509766 12.855469 L 11.509766 12.755859 C 11.509766 12.572559 11.543075 12.402094 11.609375 12.246094 C 11.675675 12.086194 11.759928 11.937275 11.861328 11.796875 C 11.966628 11.656475 12.082231 11.525197 12.207031 11.404297 C 12.335731 11.283397 12.457219 11.165834 12.574219 11.052734 C 12.671719 10.959134 12.763809 10.869003 12.849609 10.783203 C 12.939309 10.693503 13.017684 10.603366 13.083984 10.509766 C 13.150284 10.416166 13.203188 10.316237 13.242188 10.210938 C 13.281187 10.105638 13.300781 9.9900344 13.300781 9.8652344 C 13.300781 9.5922344 13.226325 9.39825 13.078125 9.28125 C 12.933825 9.16035 12.749644 9.0996094 12.527344 9.0996094 C 12.402544 9.0996094 12.292812 9.1152844 12.195312 9.1464844 C 12.097813 9.1776844 12.0116 9.2149125 11.9375 9.2578125 C 11.8673 9.2968125 11.806559 9.3379594 11.755859 9.3808594 C 11.705159 9.4237594 11.667931 9.4570688 11.644531 9.4804688 L 11.445312 9.2167969 C 11.468713 9.1894969 11.509859 9.1503094 11.568359 9.0996094 C 11.630759 9.0450094 11.707175 8.9921062 11.796875 8.9414062 C 11.890475 8.8907063 11.998241 8.8476 12.119141 8.8125 C 12.240041 8.7735 12.373284 8.7539063 12.521484 8.7539062 z M 8.8222656 8.8105469 C 8.6782656 8.8105469 8.5270938 8.8217031 8.3710938 8.8457031 C 8.2150937 8.8637031 8.0714531 8.9084687 7.9394531 8.9804688 C 7.8074531 9.0464688 7.6992344 9.1397656 7.6152344 9.2597656 C 7.5312344 9.3797656 7.4902344 9.5383281 7.4902344 9.7363281 C 7.4902344 9.9103281 7.5163125 10.057734 7.5703125 10.177734 C 7.6303125 10.297734 7.7124531 10.394797 7.8144531 10.466797 C 7.9224531 10.538797 8.0474063 10.592906 8.1914062 10.628906 C 8.3414062 10.658906 8.5093125 10.673828 8.6953125 10.673828 C 8.9233125 10.673828 9.1210625 10.666297 9.2890625 10.654297 C 9.4630625 10.636297 9.6104688 10.615797 9.7304688 10.591797 L 9.7304688 8.953125 C 9.6644688 8.923125 9.5600156 8.8932812 9.4160156 8.8632812 C 9.2720156 8.8272812 9.0742656 8.8105469 8.8222656 8.8105469 z "
     id="path4" />
</svg>

<svg xmlns="http://www.w3.org/2000/svg" viewBox="0 0 16 16">
 <path d="m 1.6 0 c -0.886 0 -1.6 0.713 -1.6 1.6 l 0 12.801 c 0 0.886 0.713 1.6 1.6 1.6 l 12.801 0 c 0.886 0 1.6 -0.713 1.6 -1.6 l 0 -12.801 c 0 -0.886 -0.713 -1.6 -1.6 -1.6 l -12.801 0 z m 3.467 4.859 l 0.611 0 l 0 4.275 c 0 0.3 -0.03 0.578 -0.09 0.836 c -0.06 0.252 -0.164 0.474 -0.314 0.666 c -0.144 0.186 -0.34 0.333 -0.586 0.441 c -0.24 0.102 -0.542 0.152 -0.908 0.152 c -0.216 0 -0.414 -0.021 -0.594 -0.063 c -0.18 -0.036 -0.341 -0.081 -0.479 -0.135 c -0.138 -0.054 -0.254 -0.112 -0.35 -0.172 c -0.09 -0.06 -0.159 -0.114 -0.207 -0.162 l 0.287 -0.494 c 0.054 0.048 0.119 0.102 0.197 0.162 c 0.084 0.054 0.181 0.104 0.289 0.152 c 0.108 0.048 0.227 0.087 0.359 0.117 c 0.132 0.03 0.276 0.045 0.432 0.045 c 0.462 0 0.802 -0.119 1.018 -0.359 c 0.222 -0.246 0.334 -0.664 0.334 -1.252 l 0 -4.211 z m 3.574 1.477 c 0.306 0 0.565 0.045 0.775 0.135 c 0.216 0.084 0.389 0.203 0.521 0.359 c 0.132 0.15 0.227 0.329 0.287 0.539 c 0.06 0.21 0.092 0.44 0.092 0.686 l 0 2.934 c -0.06 0.018 -0.148 0.038 -0.262 0.063 c -0.114 0.018 -0.246 0.038 -0.396 0.063 c -0.15 0.024 -0.318 0.043 -0.504 0.055 c -0.18 0.018 -0.367 0.027 -0.559 0.027 c -0.246 0 -0.474 -0.028 -0.684 -0.082 c -0.204 -0.054 -0.383 -0.138 -0.539 -0.252 c -0.15 -0.12 -0.271 -0.269 -0.361 -0.449 c -0.084 -0.186 -0.125 -0.412 -0.125 -0.676 c 0 -0.252 0.049 -0.466 0.145 -0.646 c 0.096 -0.18 0.23 -0.327 0.404 -0.441 c 0.174 -0.12 0.381 -0.208 0.621 -0.262 c 0.24 -0.054 0.501 -0.08 0.783 -0.08 c 0.084 0 0.17 0.006 0.26 0.018 c 0.096 0.006 0.187 0.017 0.271 0.035 c 0.09 0.012 0.165 0.027 0.225 0.045 c 0.066 0.012 0.111 0.025 0.135 0.037 l 0 -0.289 c 0 -0.162 -0.011 -0.317 -0.035 -0.467 c -0.024 -0.156 -0.078 -0.294 -0.162 -0.414 c -0.078 -0.126 -0.192 -0.225 -0.342 -0.297 c -0.144 -0.078 -0.336 -0.117 -0.576 -0.117 c -0.342 0 -0.598 0.024 -0.766 0.072 c -0.168 0.048 -0.291 0.087 -0.369 0.117 l -0.08 -0.514 c 0.102 -0.048 0.257 -0.093 0.467 -0.135 c 0.216 -0.042 0.473 -0.063 0.773 -0.063 z m 3.881 2.418 c 0.394 0 0.692 0.098 0.891 0.293 c 0.199 0.191 0.299 0.458 0.299 0.801 c 0 0.152 -0.027 0.297 -0.082 0.434 c -0.055 0.133 -0.129 0.262 -0.223 0.387 c -0.09 0.125 -0.194 0.244 -0.311 0.361 c -0.117 0.117 -0.237 0.235 -0.357 0.352 c -0.101 0.098 -0.199 0.197 -0.297 0.299 c -0.094 0.097 -0.18 0.197 -0.258 0.299 c -0.074 0.097 -0.135 0.194 -0.182 0.291 c -0.043 0.094 -0.064 0.188 -0.064 0.281 l 0 0.012 l 1.912 0 l 0 0.334 l -2.334 0 c 0 -0.008 -0.002 -0.022 -0.006 -0.041 l 0 -0.1 c 0 -0.183 0.033 -0.354 0.1 -0.51 c 0.066 -0.16 0.151 -0.309 0.252 -0.449 c 0.105 -0.14 0.221 -0.272 0.346 -0.393 c 0.129 -0.121 0.25 -0.238 0.367 -0.352 c 0.098 -0.094 0.19 -0.184 0.275 -0.27 c 0.09 -0.09 0.168 -0.18 0.234 -0.273 c 0.066 -0.094 0.119 -0.194 0.158 -0.299 c 0.039 -0.105 0.059 -0.221 0.059 -0.346 c 0 -0.273 -0.074 -0.467 -0.223 -0.584 c -0.144 -0.121 -0.328 -0.182 -0.551 -0.182 c -0.125 0 -0.235 0.016 -0.332 0.047 c -0.097 0.031 -0.184 0.068 -0.258 0.111 c -0.07 0.039 -0.131 0.08 -0.182 0.123 c -0.051 0.043 -0.088 0.076 -0.111 0.1 l -0.199 -0.264 c 0.023 -0.027 0.065 -0.066 0.123 -0.117 c 0.062 -0.055 0.139 -0.108 0.229 -0.158 c 0.094 -0.051 0.201 -0.094 0.322 -0.129 c 0.121 -0.039 0.254 -0.059 0.402 -0.059 z m -3.699 0.057 c -0.144 0 -0.295 0.011 -0.451 0.035 c -0.156 0.018 -0.3 0.063 -0.432 0.135 c -0.132 0.066 -0.24 0.159 -0.324 0.279 c -0.084 0.12 -0.125 0.279 -0.125 0.477 c 0 0.174 0.026 0.321 0.08 0.441 c 0.06 0.12 0.142 0.217 0.244 0.289 c 0.108 0.072 0.233 0.126 0.377 0.162 c 0.15 0.03 0.318 0.045 0.504 0.045 c 0.228 0 0.426 -0.008 0.594 -0.02 c 0.174 -0.018 0.321 -0.038 0.441 -0.063 l 0 -1.639 c -0.066 -0.03 -0.17 -0.06 -0.314 -0.09 c -0.144 -0.036 -0.342 -0.053 -0.594 -0.053 z" style="fill:#ececec;fill-opacity:1"/>
</svg>
